svg/u1f6d7.svg

<svg viewBox="0 0 128 128" xmlns="http://www.w3.org/2000/svg">
  <g>
    <path d="M116,4H12c-4.42,0-8,3.58-8,8v104c0,4.42,3.58,8,8,8h104c4.42,0,8-3.58,8-8V12 C124,7.58,120.42,4,116,4z" fill="#194FA5"/>
    <path d="M109.7,4H11.5C7.37,4.03,4.03,7.37,4,11.5v97.9c-0.01,4.14,3.34,7.49,7.48,7.5c0.01,0,0.01,0,0.02,0 h98.1c4.14,0.01,7.49-3.34,7.5-7.48c0-0.01,0-0.01,0-0.02V11.5c0.09-4.05-3.13-7.41-7.18-7.5C109.85,4,109.77,4,109.7,4z" fill="#2262DD"/>
    <polygon points="43.3,25.5 43.5,25.5 43.5,25.3 " fill="none"/>
    <polygon points="51.9,25.3 51.9,25.5 52.1,25.5 " fill="none"/>
    <path d="M51.6,37.7V25.6h6c1.35,0.01,2.45-1.07,2.46-2.42c0.01-0.58-0.19-1.14-0.56-1.58l-7.7-9.2L51.4,12 c-0.4-0.45-0.92-0.76-1.5-0.9c-1.53-0.59-3.27-0.05-4.2,1.3c0,0.1-0.1,0.1-0.2,0.1l-7.6,9.2c-0.86,1.04-0.72,2.57,0.32,3.44 c0.44,0.37,1.01,0.57,1.58,0.56h5.9v12.1c0,1.66,1.34,3,3,3l0,0C50.32,40.67,51.58,39.33,51.6,37.7z" fill="#FAFAFA"/>
    <path d="M83.8,13.8l0.1,12.1h6c1.35-0.01,2.45,1.07,2.46,2.42c0.01,0.58-0.19,1.14-0.56,1.58l-7.7,9.2 c-0.1,0.2-0.3,0.3-0.4,0.4c-0.4,0.42-0.87,0.76-1.4,1c-1.53,0.54-3.24,0.01-4.2-1.3c-0.1,0-0.1-0.1-0.2-0.2l-7.6-9.2 c-0.86-1.04-0.72-2.57,0.32-3.44c0.44-0.37,1.01-0.57,1.58-0.56h5.9L78,13.7c0-1.66,1.34-3,3-3l0,0 C82.58,10.88,83.78,12.21,83.8,13.8z" fill="#FAFAFA"/>
    <path d="M103.4,46h-77c-4.34-0.03-7.87,3.46-7.9,7.8c0,0.03,0,0.07,0,0.1v51.6c-0.03,4.34,3.46,7.87,7.8,7.9 c0.03,0,0.07,0,0.1,0h77c4.34,0.03,7.87-3.46,7.9-7.8c0-0.03,0-0.07,0-0.1V53.9C111.25,49.56,107.74,46.05,103.4,46z M102.4,104.6 H27.6V55.1h74.8V104.6z" fill="#FAFAFA"/>
    <path d="M44.7,65.2c1.73-1.08,2.3-3.33,1.3-5.1c-0.87-1.68-2.95-2.33-4.63-1.46 c-0.09,0.05-0.19,0.1-0.27,0.16l1.8,3.2l-1.8-3.2c-1.73,1.08-2.3,3.33-1.3,5.1C40.8,65.61,42.99,66.19,44.7,65.2z" fill="#FAFAFA"/>
    <path d="M36.9,84.8h0.9v15.1c-0.02,1.25,0.97,2.28,2.22,2.3c0.03,0,0.05,0,0.08,0 c1.26-0.02,2.28-1.04,2.3-2.3V84.8h0.8v15.1c-0.02,1.25,0.97,2.28,2.22,2.3c0.03,0,0.05,0,0.08,0c1.26-0.02,2.28-1.04,2.3-2.3V84.8 h0.8c1.21-0.01,2.19-0.99,2.2-2.2V68.8c-0.01-1.21-0.99-2.19-2.2-2.2H36.9c-1.21,0.01-2.19,0.99-2.2,2.2v13.8 C34.71,83.81,35.69,84.79,36.9,84.8z" fill="#FAFAFA"/>
    <path d="M40.2,102.2" fill="#FAFAFA"/>
    <path d="M66.6,65.1c1.73-1.08,2.3-3.33,1.3-5.1c-0.87-1.68-2.95-2.33-4.63-1.46 c-0.09,0.05-0.19,0.1-0.27,0.16l1.8,3.2L63,58.7c-1.73,1.08-2.3,3.33-1.3,5.1c0.87,1.68,2.95,2.33,4.63,1.46 C66.42,65.21,66.51,65.16,66.6,65.1z" fill="#FAFAFA"/>
    <path d="M58.9,84.7h0.8v15.1c-0.02,1.25,0.97,2.28,2.22,2.3c0.03,0,0.05,0,0.08,0 c1.26-0.02,2.28-1.04,2.3-2.3V84.7h0.8v15.1c0.02,1.26,1.04,2.28,2.3,2.3c1.25-0.05,2.25-1.05,2.3-2.3V84.7h1 c1.21-0.01,2.19-0.99,2.2-2.2V68.8c-0.01-1.21-0.99-2.19-2.2-2.2H58.9c-1.21,0.01-2.19,0.99-2.2,2.2v13.8 c0.02,1.18,1,2.12,2.18,2.1C58.89,84.7,58.89,84.7,58.9,84.7z" fill="#FAFAFA"/>
    <path d="M67.4,102.2" fill="#FAFAFA"/>
    <path d="M88.6,65.1c1.73-1.08,2.3-3.33,1.3-5.1c-0.87-1.68-2.95-2.33-4.63-1.46 c-0.09,0.05-0.19,0.1-0.27,0.16l1.8,3.2L85,58.7c-1.73,1.08-2.3,3.33-1.3,5.1c0.84,1.67,2.88,2.34,4.55,1.5 C88.37,65.24,88.49,65.17,88.6,65.1z" fill="#FAFAFA"/>
    <path d="M80.7,84.7h0.9v15c0,1.27,1.03,2.3,2.3,2.3s2.3-1.03,2.3-2.3c0,0,0,0,0,0v-15H87v15.1 c0,1.27,1.03,2.3,2.3,2.3c1.27,0,2.3-1.03,2.3-2.3V84.7h0.9c1.21-0.01,2.19-0.99,2.2-2.2V68.8c-0.01-1.21-0.99-2.19-2.2-2.2H80.7 c-1.21,0.01-2.19,0.99-2.2,2.2v13.8c0.02,1.18,1,2.12,2.18,2.1C80.69,84.7,80.69,84.7,80.7,84.7z" fill="#FAFAFA"/>
    <path d="M39.7,12.9c0-2.3-1.6-3-10.8-2.7c-7.7,0.3-11.5,1.2-13.8,4s-2.9,8.5-3,15.3c0,4.8,0,9.3,2.5,9.3 c3.4,0,3.4-7.9,6.2-12.3C26.2,17.8,39.7,15.9,39.7,12.9z" fill="#68ABE6"/>
  </g>
</svg>

<svg viewBox="0 0 128 128" xmlns="http://www.w3.org/2000/svg">
  <defs/>
  <path d="M116,4 L12,4 C7.58,4 4,7.58 4,12 L4,116 C4,120.42 7.58,124 12,124 L116,124 C120.42,124 124,120.42 124,116 L124,12 C124,7.58 120.42,4 116,4 Z" fill="#194FA5"/>
  <path d="M109.7,4 L11.5,4 C7.37,4.03 4.03,7.37 4,11.5 L4,109.4 C3.99,113.54 7.34,116.89 11.48,116.9 C11.49,116.9 11.49,116.9 11.5,116.9 L109.6,116.9 C113.74,116.91 117.09,113.56 117.1,109.42 C117.1,109.41 117.1,109.41 117.1,109.4 L117.1,11.5 C117.19,7.45 113.97,4.09 109.92,4 C109.85,4 109.77,4 109.7,4 Z" fill="#2262DD"/>
  <path d="M51.6,37.7 L51.6,25.6 L57.6,25.6 C58.95,25.61 60.05,24.53 60.06,23.18 C60.07,22.6 59.87,22.04 59.5,21.6 L51.8,12.4 L51.4,12 C51,11.55 50.48,11.24 49.9,11.1 C48.37,10.51 46.63,11.05 45.7,12.4 C45.7,12.5 45.6,12.5 45.5,12.5 L37.9,21.7 C37.04,22.74 37.18,24.27 38.22,25.14 C38.66,25.51 39.23,25.71 39.8,25.7 L45.7,25.7 L45.7,37.8 C45.7,39.46 47.04,40.8 48.7,40.8 L48.7,40.8 C50.32,40.67 51.58,39.33 51.6,37.7 Z" fill="#FAFAFA"/>
  <path d="M83.8,13.8 L83.9,25.9 L89.9,25.9 C91.25,25.89 92.35,26.97 92.36,28.32 C92.37,28.9 92.17,29.46 91.8,29.9 L84.1,39.1 C84,39.3 83.8,39.4 83.7,39.5 C83.3,39.92 82.83,40.26 82.3,40.5 C80.77,41.04 79.06,40.51 78.1,39.2 C78,39.2 78,39.1 77.9,39 L70.3,29.8 C69.44,28.76 69.58,27.23 70.62,26.36 C71.06,25.99 71.63,25.79 72.2,25.8 L78.1,25.8 L78,13.7 C78,12.04 79.34,10.7 81,10.7 L81,10.7 C82.58,10.88 83.78,12.21 83.8,13.8 Z" fill="#FAFAFA"/>
  <path d="M103.4,46 L26.4,46 C22.06,45.97 18.53,49.46 18.5,53.8 C18.5,53.83 18.5,53.87 18.5,53.9 L18.5,105.5 C18.47,109.84 21.96,113.37 26.3,113.4 C26.33,113.4 26.37,113.4 26.4,113.4 L103.4,113.4 C107.74,113.43 111.27,109.94 111.3,105.6 C111.3,105.57 111.3,105.53 111.3,105.5 L111.3,53.9 C111.25,49.56 107.74,46.05 103.4,46 Z M102.4,104.6 L27.6,104.6 L27.6,55.1 L102.4,55.1 L102.4,104.6 Z" fill="#FAFAFA"/>
  <path d="M44.7,65.2 C46.43,64.12 47,61.87 46,60.1 C45.13,58.42 43.05,57.77 41.37,58.64 C41.28,58.69 41.18,58.74 41.1,58.8 L42.9,62 L41.1,58.8 C39.37,59.88 38.8,62.13 39.8,63.9 C40.8,65.61 42.99,66.19 44.7,65.2 Z" fill="#FAFAFA"/>
  <path d="M36.9,84.8 L37.8,84.8 L37.8,99.9 C37.78,101.15 38.77,102.18 40.02,102.2 C40.05,102.2 40.07,102.2 40.1,102.2 C41.36,102.18 42.38,101.16 42.4,99.9 L42.4,84.8 L43.2,84.8 L43.2,99.9 C43.18,101.15 44.17,102.18 45.42,102.2 C45.45,102.2 45.47,102.2 45.5,102.2 C46.76,102.18 47.78,101.16 47.8,99.9 L47.8,84.8 L48.6,84.8 C49.81,84.79 50.79,83.81 50.8,82.6 L50.8,68.8 C50.79,67.59 49.81,66.61 48.6,66.6 L36.9,66.6 C35.69,66.61 34.71,67.59 34.7,68.8 L34.7,82.6 C34.71,83.81 35.69,84.79 36.9,84.8 Z" fill="#FAFAFA"/>
  <path d="M66.6,65.1 C68.33,64.02 68.9,61.77 67.9,60 C67.03,58.32 64.95,57.67 63.27,58.54 C63.18,58.59 63.08,58.64 63,58.7 L64.8,61.9 L63,58.7 C61.27,59.78 60.7,62.03 61.7,63.8 C62.57,65.48 64.65,66.13 66.33,65.26 C66.42,65.21 66.51,65.16 66.6,65.1 Z" fill="#FAFAFA"/>
  <path d="M58.9,84.7 L59.7,84.7 L59.7,99.8 C59.68,101.05 60.67,102.08 61.92,102.1 C61.95,102.1 61.97,102.1 62,102.1 C63.26,102.08 64.28,101.06 64.3,99.8 L64.3,84.7 L65.1,84.7 L65.1,99.8 C65.12,101.06 66.14,102.08 67.4,102.1 C68.65,102.05 69.65,101.05 69.7,99.8 L69.7,84.7 L70.7,84.7 C71.91,84.69 72.89,83.71 72.9,82.5 L72.9,68.8 C72.89,67.59 71.91,66.61 70.7,66.6 L58.9,66.6 C57.69,66.61 56.71,67.59 56.7,68.8 L56.7,82.6 C56.72,83.78 57.7,84.72 58.88,84.7 C58.89,84.7 58.89,84.7 58.9,84.7 Z" fill="#FAFAFA"/>
  <path d="M88.6,65.1 C90.33,64.02 90.9,61.77 89.9,60 C89.03,58.32 86.95,57.67 85.27,58.54 C85.18,58.59 85.08,58.64 85,58.7 L86.8,61.9 L85,58.7 C83.27,59.78 82.7,62.03 83.7,63.8 C84.54,65.47 86.58,66.14 88.25,65.3 C88.37,65.24 88.49,65.17 88.6,65.1 Z" fill="#FAFAFA"/>
  <path d="M80.7,84.7 L81.6,84.7 L81.6,99.7 C81.6,100.97 82.63,102 83.9,102 C85.17,102 86.2,100.97 86.2,99.7 C86.2,99.7 86.2,99.7 86.2,99.7 L86.2,84.7 L87,84.7 L87,99.8 C87,101.07 88.03,102.1 89.3,102.1 C90.57,102.1 91.6,101.07 91.6,99.8 L91.6,84.7 L92.5,84.7 C93.71,84.69 94.69,83.71 94.7,82.5 L94.7,68.8 C94.69,67.59 93.71,66.61 92.5,66.6 L80.7,66.6 C79.49,66.61 78.51,67.59 78.5,68.8 L78.5,82.6 C78.52,83.78 79.5,84.72 80.68,84.7 C80.69,84.7 80.69,84.7 80.7,84.7 Z" fill="#FAFAFA"/>
  <path d="M39.7,12.9 C39.7,10.6 38.1,9.9 28.9,10.2 C21.2,10.5 17.4,11.4 15.1,14.2 C12.8,17 12.2,22.7 12.1,29.5 C12.1,34.3 12.1,38.8 14.6,38.8 C18,38.8 18,30.9 20.8,26.5 C26.2,17.8 39.7,15.9 39.7,12.9 Z" fill="#68ABE6"/>
</svg>
